X:1
L:1/8
M:4/4
K:D
 FAdB A3 G | (3FGA dA FEEG | FAdB A2 Af | afeg fedB | FAdB ABAG | FAdA FEEG | FAdB Af | 
 afeg fedf || Afef dcdf | afeg fb b2 | afef dcdB | ABAG FADf | Afef dcdf | afeg fb b2 | 
 af (3gfe fdBd | A2 AG (3FGA D2 || (3FGA dB A3 G | (3FGA DA FEEG | (3FGA dB A2 f | afeg fedA | 
 (3FGA dB A3 G | (3FGA dB FEEG | FAdB A3 f | afeg fedf || afef dcdf | afeg fb b2 | afef dcdB | 
 ABAG FDDf | afef dcdf | afeg fb b2 | afge fdBd | A2 AG FA D2 ||
